img/toolbar/schema_open.svg

<svg height="24" width="24" xmlns="http://www.w3.org/2000/svg" xmlns:xlink="http://www.w3.org/1999/xlink">
  <linearGradient id="a" gradientTransform="matrix(.7647059 0 0 .9 2.441178 -1.292013)" gradientUnits="userSpaceOnUse" x1="4" x2="20" y1="3" y2="22">
    <stop offset="0" stop-color="#92b1de"/>
    <stop offset="1" stop-color="#525f96"/>
  </linearGradient>
  <linearGradient id="b" gradientTransform="matrix(.7647059 0 0 .9 2.441178 -1.292013)" gradientUnits="userSpaceOnUse" x1="5" x2="20" y1="3" y2="21">
    <stop offset="0" stop-color="#fdffff"/>
    <stop offset="1" stop-color="#b2d3fa"/>
  </linearGradient>
  <linearGradient id="c">
    <stop offset="0" stop-color="#705526"/>
    <stop offset="1" stop-color="#c69c59"/>
  </linearGradient>
  <linearGradient id="d">
    <stop offset="0" stop-color="#f3c668"/>
    <stop offset="1" stop-color="#f9f398"/>
  </linearGradient>
  <linearGradient id="e" gradientUnits="userSpaceOnUse" x1="1" x2="16" xlink:href="#c" y1="17" y2="7"/>
  <linearGradient id="f" gradientUnits="userSpaceOnUse" x1="3" x2="10" xlink:href="#d" y1="13" y2="8"/>
  <linearGradient id="g" gradientUnits="userSpaceOnUse" x1="6" x2="17" xlink:href="#d" y1="13" y2="20"/>
  <linearGradient id="h" gradientUnits="userSpaceOnUse" x1="3" x2="21" xlink:href="#c" y1="20" y2="11"/>
  <g stroke-linejoin="round">
    <path d="m.6 21.4v-14.4l2.4-4.4h7l1 2.8h7v16z" fill="url(#f)" fill-rule="evenodd" stroke="url(#e)" stroke-width="1.2"/>
    <path d="m5.5.507987h13v18h-13z" fill="url(#b)" fill-rule="evenodd" stroke="url(#a)" stroke-dashoffset="21.443998" stroke-linecap="round"/>
    <path d="m8.0300319 3.507987h8.4699681l-9.469968 11.999993" fill="none" opacity=".7" stroke="#f00"/>
  </g>
  <path d="m9.5 6.007986h3l4 4.999993h-3z" fill="#4aadff" fill-opacity=".784314" fill-rule="evenodd"/>
  <path d="m.6 21.4h17.4l5-12h-13l-1 2h-4z" fill="url(#g)" fill-rule="evenodd" stroke="url(#h)" stroke-linejoin="round" stroke-width="1.2"/>
  <path d="m8.5 1.5079873v3.9999995" fill="none" stroke="#373737"/>
</svg>

<?xml version="1.0" encoding="UTF-8" standalone="no"?>
<!-- Created with Inkscape (http://www.inkscape.org/) -->
<svg
   xmlns:dc="http://purl.org/dc/elements/1.1/"
   xmlns:cc="http://creativecommons.org/ns#"
   xmlns:rdf="http://www.w3.org/1999/02/22-rdf-syntax-ns#"
   xmlns:svg="http://www.w3.org/2000/svg"
   xmlns="http://www.w3.org/2000/svg"
   xmlns:xlink="http://www.w3.org/1999/xlink"
   xmlns:sodipodi="http://sodipodi.sourceforge.net/DTD/sodipodi-0.dtd"
   xmlns:inkscape="http://www.inkscape.org/namespaces/inkscape"
   width="24"
   height="24"
   id="svg8318"
   sodipodi:version="0.32"
   inkscape:version="0.46"
   version="1.0"
   sodipodi:docname="folder.svg"
   inkscape:output_extension="org.inkscape.output.svg.inkscape"
   inkscape:export-filename="D:\Projects\rezonator2\img\schema_open_24.png"
   inkscape:export-xdpi="90"
   inkscape:export-ydpi="90">
  <defs
     id="defs8320">
    <linearGradient
       inkscape:collect="always"
       xlink:href="#linearGradient3165"
       id="linearGradient7746"
       gradientUnits="userSpaceOnUse"
       gradientTransform="matrix(0.7647059,0,0,0.9,2.4411778,-1.2920131)"
       x1="4"
       y1="3"
       x2="20"
       y2="22" />
    <linearGradient
       inkscape:collect="always"
       xlink:href="#linearGradient3157"
       id="linearGradient7744"
       gradientUnits="userSpaceOnUse"
       gradientTransform="matrix(0.7647059,0,0,0.9,2.4411778,-1.2920131)"
       x1="5"
       y1="3"
       x2="20"
       y2="21" />
    <linearGradient
       inkscape:collect="always"
       id="linearGradient3512">
      <stop
         style="stop-color:#818eaf;stop-opacity:1;"
         offset="0"
         id="stop3514" />
      <stop
         style="stop-color:#818eaf;stop-opacity:0;"
         offset="1"
         id="stop3516" />
    </linearGradient>
    <linearGradient
       inkscape:collect="always"
       id="linearGradient3504">
      <stop
         style="stop-color:#818eaf;stop-opacity:1;"
         offset="0"
         id="stop3506" />
      <stop
         style="stop-color:#818eaf;stop-opacity:0;"
         offset="1"
         id="stop3508" />
    </linearGradient>
    <linearGradient
       inkscape:collect="always"
       id="linearGradient3496">
      <stop
         style="stop-color:#818eaf;stop-opacity:1;"
         offset="0"
         id="stop3498" />
      <stop
         style="stop-color:#818eaf;stop-opacity:0;"
         offset="1"
         id="stop3500" />
    </linearGradient>
    <linearGradient
       inkscape:collect="always"
       id="linearGradient3472">
      <stop
         style="stop-color:#818eaf;stop-opacity:1;"
         offset="0"
         id="stop3474" />
      <stop
         style="stop-color:#818eaf;stop-opacity:0;"
         offset="1"
         id="stop3476" />
    </linearGradient>
    <linearGradient
       id="linearGradient3157">
      <stop
         style="stop-color:#fdffff;stop-opacity:1;"
         offset="0"
         id="stop3159" />
      <stop
         style="stop-color:#b2d3fa;stop-opacity:1;"
         offset="1"
         id="stop3161" />
    </linearGradient>
    <linearGradient
       id="linearGradient3165">
      <stop
         style="stop-color:#92b1de;stop-opacity:1;"
         offset="0"
         id="stop3167" />
      <stop
         style="stop-color:#525f96;stop-opacity:1;"
         offset="1"
         id="stop3169" />
    </linearGradient>
    <linearGradient
       id="linearGradient5059">
      <stop
         style="stop-color:#705526;stop-opacity:1;"
         offset="0"
         id="stop5061" />
      <stop
         style="stop-color:#c69c59;stop-opacity:1;"
         offset="1"
         id="stop5063" />
    </linearGradient>
    <linearGradient
       id="linearGradient4672">
      <stop
         style="stop-color:#f3c668;stop-opacity:1;"
         offset="0"
         id="stop4674" />
      <stop
         style="stop-color:#f9f398;stop-opacity:1;"
         offset="1"
         id="stop4676" />
    </linearGradient>
    <inkscape:perspective
       sodipodi:type="inkscape:persp3d"
       inkscape:vp_x="0 : 526.18109 : 1"
       inkscape:vp_y="0 : 1000 : 0"
       inkscape:vp_z="744.09448 : 526.18109 : 1"
       inkscape:persp3d-origin="372.04724 : 350.78739 : 1"
       id="perspective8326" />
    <linearGradient
       inkscape:collect="always"
       xlink:href="#linearGradient5059"
       id="linearGradient9045"
       x1="1"
       y1="17"
       x2="16"
       y2="7"
       gradientUnits="userSpaceOnUse" />
    <linearGradient
       inkscape:collect="always"
       xlink:href="#linearGradient4672"
       id="linearGradient9053"
       x1="3"
       y1="13"
       x2="10"
       y2="8"
       gradientUnits="userSpaceOnUse" />
    <linearGradient
       inkscape:collect="always"
       xlink:href="#linearGradient4672"
       id="linearGradient9061"
       x1="6"
       y1="13"
       x2="17"
       y2="20"
       gradientUnits="userSpaceOnUse" />
    <linearGradient
       inkscape:collect="always"
       xlink:href="#linearGradient5059"
       id="linearGradient9069"
       x1="3"
       y1="20"
       x2="21"
       y2="11"
       gradientUnits="userSpaceOnUse" />
    <linearGradient
       inkscape:collect="always"
       xlink:href="#linearGradient3157"
       id="linearGradient9311"
       gradientUnits="userSpaceOnUse"
       gradientTransform="matrix(1.0117647,0,0,0.9079799,11.702782,10.341229)"
       x1="4.5930228"
       y1="2.6608078"
       x2="16.453487"
       y2="16.978306" />
    <linearGradient
       inkscape:collect="always"
       xlink:href="#linearGradient3165"
       id="linearGradient9313"
       gradientUnits="userSpaceOnUse"
       gradientTransform="matrix(1.0117647,0,0,0.9079799,11.702782,10.341229)"
       x1="16.453487"
       y1="2.6608078"
       x2="4.5930228"
       y2="16.978306" />
    <linearGradient
       inkscape:collect="always"
       xlink:href="#linearGradient3512"
       id="linearGradient9315"
       gradientUnits="userSpaceOnUse"
       gradientTransform="translate(15.34984,9.7571887)"
       x1="3.5"
       y1="13.5"
       x2="8.5"
       y2="13.5" />
    <linearGradient
       inkscape:collect="always"
       xlink:href="#linearGradient3504"
       id="linearGradient9317"
       gradientUnits="userSpaceOnUse"
       gradientTransform="translate(15.34984,9.7571887)"
       x1="3.5"
       y1="11.5"
       x2="10.5"
       y2="11.5" />
    <linearGradient
       inkscape:collect="always"
       xlink:href="#linearGradient3496"
       id="linearGradient9319"
       gradientUnits="userSpaceOnUse"
       gradientTransform="translate(15.34984,9.7571887)"
       x1="3.5"
       y1="9.5"
       x2="10.5"
       y2="9.5" />
    <linearGradient
       inkscape:collect="always"
       xlink:href="#linearGradient3472"
       id="linearGradient9321"
       gradientUnits="userSpaceOnUse"
       gradientTransform="translate(15.34984,11.757189)"
       x1="3.5"
       y1="3.5"
       x2="10.5"
       y2="3.5" />
    <linearGradient
       inkscape:collect="always"
       xlink:href="#linearGradient3472"
       id="linearGradient9323"
       gradientUnits="userSpaceOnUse"
       gradientTransform="translate(15.34984,13.757189)"
       x1="3.5"
       y1="3.5"
       x2="10.5"
       y2="3.5" />
    <linearGradient
       inkscape:collect="always"
       xlink:href="#linearGradient3157"
       id="linearGradient9325"
       gradientUnits="userSpaceOnUse"
       gradientTransform="translate(8.3498403,11.756986)"
       x1="13"
       y1="9.0002022"
       x2="18"
       y2="4.0000005" />
    <linearGradient
       inkscape:collect="always"
       xlink:href="#linearGradient3165"
       id="linearGradient9327"
       gradientUnits="userSpaceOnUse"
       gradientTransform="translate(8.2498397,11.857188)"
       x1="18.1"
       y1="3.9000006"
       x2="15.1"
       y2="6.9000006" />
  </defs>
  <sodipodi:namedview
     id="base"
     pagecolor="#ffffff"
     bordercolor="#666666"
     borderopacity="1.0"
     gridtolerance="10000"
     guidetolerance="10"
     objecttolerance="10"
     inkscape:pageopacity="0.0"
     inkscape:pageshadow="2"
     inkscape:zoom="39.125"
     inkscape:cx="7.1948882"
     inkscape:cy="13.57761"
     inkscape:document-units="px"
     inkscape:current-layer="layer1"
     showgrid="true"
     inkscape:window-width="1920"
     inkscape:window-height="1144"
     inkscape:window-x="-4"
     inkscape:window-y="-4">
    <inkscape:grid
       type="xygrid"
       id="grid8328"
       visible="true"
       enabled="true" />
  </sodipodi:namedview>
  <metadata
     id="metadata8323">
    <rdf:RDF>
      <cc:Work
         rdf:about="">
        <dc:format>image/svg+xml</dc:format>
        <dc:type
           rdf:resource="http://purl.org/dc/dcmitype/StillImage" />
      </cc:Work>
    </rdf:RDF>
  </metadata>
  <g
     inkscape:label="Layer 1"
     inkscape:groupmode="layer"
     id="layer1">
    <path
       style="fill:url(#linearGradient9053);fill-rule:evenodd;stroke:url(#linearGradient9045);stroke-width:1.20000000000000000;stroke-linecap:butt;stroke-linejoin:round;stroke-opacity:1;fill-opacity:1;stroke-miterlimit:4;stroke-dasharray:none"
       d="M 0.6,21.4 L 0.6,7 L 3,2.6 L 10,2.6 L 11,5.4 L 18,5.4 L 18,21.4 L 0.6,21.4 z"
       id="path8841"
       sodipodi:nodetypes="cccccccc" />
    <rect
       style="fill:url(#linearGradient7744);fill-opacity:1;fill-rule:evenodd;stroke:url(#linearGradient7746);stroke-width:1;stroke-linecap:round;stroke-linejoin:round;stroke-miterlimit:4;stroke-dasharray:none;stroke-dashoffset:21.44399795;stroke-opacity:1"
       id="rect2385"
       width="13"
       height="18"
       x="5.5"
       y="0.50798708" />
    <path
       style="opacity:0.7;fill:none;fill-rule:evenodd;stroke:#ff0000;stroke-width:1px;stroke-linecap:butt;stroke-linejoin:round;stroke-opacity:1"
       d="M 8.0300319,3.507987 L 16.5,3.507987 L 7.030032,15.50798"
       id="path3177"
       sodipodi:nodetypes="ccc" />
    <path
       style="fill:#4aadff;fill-opacity:0.78431373;fill-rule:evenodd;stroke:none;stroke-width:1px;stroke-linecap:butt;stroke-linejoin:miter;stroke-opacity:1"
       d="M 9.5,6.007986 L 12.5,6.007986 L 16.5,11.007979 L 13.5,11.007979 L 9.5,6.007986 z"
       id="path3185" />
    <path
       style="fill:url(#linearGradient9061);fill-rule:evenodd;stroke:url(#linearGradient9069);stroke-width:1.20000000000000000;stroke-linecap:butt;stroke-linejoin:round;stroke-opacity:1;fill-opacity:1;stroke-miterlimit:4;stroke-dasharray:none"
       d="M 0.6,21.4 L 18,21.4 L 23,9.4 L 10,9.4 L 9,11.4 L 5,11.4 L 0.6,21.4 z"
       id="path8330"
       sodipodi:nodetypes="ccccccc" />
    <path
       style="fill:none;fill-rule:evenodd;stroke:#373737;stroke-width:1;stroke-linecap:butt;stroke-linejoin:miter;stroke-miterlimit:4;stroke-dasharray:none;stroke-opacity:1"
       d="M 8.5,1.5079873 L 8.5,5.5079868"
       id="path3173" />
  </g>
</svg>
